X:1
T:Schottis från Lindome
O:Lindome, Halland
S:efter Albert Drakenberg
Z:nedtecknad ur minnet av Åke Persson
R:schottis
M:2/4
L:1/8
K:D
DF Ad | fd AF | DF Ad | f2 f2 | ga gf | ef ed | cd cG | B2 A2 |
DF Ad | fd AF | DF Ad | f2 f2 | ga gf | ef ed | cA Bc | d4 ::
f2 fa | fd fa | ag gb | B3 d | c2 ce | cA ce | d2 d/c/d | fd Ad |
f2 fa | fd fa | ag gb | B3 d | c2 ce | cA Bc | d2 d2 | d4 :|

